X: 42464
T: Wet Field Day
R: reel
M: 4/4
K: Bminor
|:"Bm" z2[df]2 [df]2 [ce]2|[df]2 z2 [da]2 [da] [df]-|[df] [df] [df]2 [df]2 [ce]2|"D" B2 A2 A4|
"G" z2[df]2 [df]2 [ce]2|[df]2 z2 [da]2 [da] [df]-|[df] [df] [df]2 [df]2 [ce]2|"Em" A8:|
|:"Bm" F2 EF AFFD|EFED ED B,2|F2 EF AFFA|"D" BAAB F2 ED|
"G" F2 EF AFFD|EFED ED B,2|dBBA BdBA|1 "Em" FDEF EDB,2:|2 "Em" FDEF D3 D||
|:"G" ABde edde|f3f edBA|ABde "Em" edde|fefa edBA|
"Bm" ABde edde|f3f edBa|afff feed|1 "D" efed edBA:|2 "D" efed edBd||
|:z2 "Bm" FE F2A2|FE F2 A2 FA|d2 AF A2 B2|FE D2 "A" E2 B,2-|"D" B,2 z6|z8|z2 A,2 B,2 D2|F2 E2 "A" DCA,B,|
"Bm" z2 FE F2A2|FE F2 A2 FA|d2 AF A2 B2|FE D2 "A" E2 B,2-|"D" B,2 z6|z8|1 z2 A,2 B,2 D2|F2 E2 "A" DCA,B,:|2 z8|z4 "A" z4||

